assets/prototypes/bbc_news_frontpage/03_October_2016/assets/icons/svg+xml.svg

<svg width="50px" height="50px" viewBox="19 2 18 45" version="1.1" xmlns="http://www.w3.org/2000/svg" xmlns:xlink="http://www.w3.org/1999/xlink">
    <!-- Generator: Sketch 3.8.3 (29802) - http://www.bohemiancoding.com/sketch -->

        <style>*{fill:#9E2F50 !important}</style>
    <path d="M20,46.9123862 C20.5686714,46.9572318 21.1457403,46.7061095 21.494,46.201 L23.5359949,43.2606633 C24.5033984,41.9624311 25.421286,40.6866939 25.59695,40.2930253 L35.903,25.453 C36.049,25.246 36.141,25.018 36.182,24.782 L36.2,24.634 L36.205,24.389 L36.182,24.202 C36.141,23.958 36.049,23.73 35.903,23.519 L25.615452,8.70949991 L25.6152465,8.69477229 L25.5900793,8.67297451 L21.493,2.775 C21.3713704,2.59812643 21.2218317,2.45239467 21.0544889,2.33954307 L21.03,2.30471787 C20.7174281,2.08317426 20.3547535,1.98550552 20,2.00172979 L20,46.9123862 L20,46.9123862 Z" id="Combined-Shape" stroke="none" fill="#010202" fill-rule="evenodd"></path>
</svg>

<svg width="50" height="50" viewBox="19 2 18 45" xmlns="http://www.w3.org/2000/svg"><style>*{fill:#9e2f50!important}</style><path d="M20 46.912a1.654 1.654 0 0 0 1.494-.711l2.042-2.94c.967-1.299 1.885-2.574 2.06-2.968l10.307-14.84c.146-.207.238-.435.279-.671l.018-.148.005-.245-.023-.187a1.675 1.675 0 0 0-.279-.683L25.615 8.709v-.014l-.025-.022-4.097-5.898a1.654 1.654 0 0 0-.439-.435l-.024-.035A1.645 1.645 0 0 0 20 2.002v44.91z" id="Combined-Shape" fill="#010202" fill-rule="evenodd"/></svg>
